icons/1_Primary/RealVNC.svg

<svg xmlns="http://www.w3.org/2000/svg" width="1024" height="1024" fill="none">
   <g clip-path="url(#a)">
      <path fill="#728DBE" d="M512 1024c282.77 0 512-229.23 512-512S794.77 0 512 0 0 229.23 0 512s229.23 512 512 512Z"/>
      <path fill="#fff" d="M655.84 463.39h-18.3l-30.32 79.69-30.07-79.69h-18.29l32.83 87a16.74 16.74 0 0 0 31.57-2l32.58-85Zm176.66 78.93h-34.33a30.315 30.315 0 0 1-28.012-18.717 30.312 30.312 0 0 1 0-23.206 30.316 30.316 0 0 1 16.409-16.409 30.315 30.315 0 0 1 11.603-2.308h34.33v-18.29h-34.33a48.614 48.614 0 1 0 0 97.23h34.33v-18.3Zm-136.32-78.93a43.63 43.63 0 0 0-43.6 43.6v53.37h18.29V507a25.562 25.562 0 0 1 25.565-25.565A25.566 25.566 0 0 1 722 507v53.88h18.29V507c-.51-24.07-20.05-43.61-44.11-43.61ZM274.44 501a38.077 38.077 0 0 0-37.59-37.84H191.5v97.23h18.29v-21.8h22.3l17.29 21.8h23.56l-20-25.31a37.607 37.607 0 0 0 21.5-34.08Zm-37.59 19.55h-27.06v-39.12h27.06a19.36 19.36 0 0 1 19.55 19.3c0 10.77-9.02 19.79-19.54 19.79l-.01.03Zm325.51 21.8h-21.8a30.048 30.048 0 0 1-30.32-30.07v-49.14H492v48.61a48.66 48.66 0 0 0 48.61 48.61h21.8l-.05-18.01Zm-123.78-79.21a43.63 43.63 0 0 0-43.6 43.6v53.37h18.29v-18.54h51.12v18.54h18.29V507a44.118 44.118 0 0 0-44.1-43.85v-.01ZM413 523.78v-17.03c0-6.779 2.693-13.28 7.486-18.074a25.563 25.563 0 0 1 36.148 0 25.563 25.563 0 0 1 7.486 18.074v17.04l-51.12-.01Zm-27.56-23.05a51.472 51.472 0 0 0-55.114-40.064 51.471 51.471 0 0 0-46.576 49.732 51.473 51.473 0 0 0 79.224 44.839A51.474 51.474 0 0 0 384.7 526h-19.3a33.166 33.166 0 0 1-29.3 19.067A33.16 33.16 0 0 1 306 527.29l79.44-26.56Zm-50.12-22.3a32.26 32.26 0 0 1 24.81 11.28L302 509.24a33.55 33.55 0 0 1 33.34-30.82l-.02.01Z"/>
   </g>
   <defs>
      <clipPath id="a">
         <path fill="#fff" d="M0 0h1024v1024H0z"/>
      </clipPath>
   </defs>
</svg>

<svg width="1024" height="1024" viewBox="0 0 1024 1024" fill="none" xmlns="http://www.w3.org/2000/svg">
<g clip-path="url(#clip0_2_3300)">
<path d="M512 1024C794.77 1024 1024 794.77 1024 512C1024 229.23 794.77 0 512 0C229.23 0 0 229.23 0 512C0 794.77 229.23 1024 512 1024Z" fill="#728DBE"/>
<path d="M655.84 463.39H637.54L607.22 543.08L577.15 463.39H558.86L591.69 550.39C593.035 553.599 595.347 556.309 598.303 558.143C601.26 559.977 604.714 560.845 608.187 560.625C611.659 560.405 614.977 559.108 617.678 556.916C620.379 554.723 622.331 551.743 623.26 548.39L655.84 463.39ZM832.5 542.32H798.17C794.188 542.32 790.246 541.536 786.567 540.012C782.888 538.488 779.546 536.255 776.731 533.44C773.915 530.624 771.682 527.282 770.158 523.603C768.634 519.925 767.85 515.982 767.85 512C767.85 508.018 768.634 504.076 770.158 500.397C771.682 496.719 773.915 493.376 776.731 490.561C779.546 487.745 782.888 485.512 786.567 483.988C790.246 482.464 794.188 481.68 798.17 481.68H832.5V463.39H798.17C785.276 463.39 772.911 468.512 763.794 477.629C754.677 486.746 749.555 499.112 749.555 512.005C749.555 524.899 754.677 537.264 763.794 546.381C772.911 555.498 785.276 560.62 798.17 560.62H832.5V542.32ZM696.18 463.39C684.619 463.398 673.534 467.994 665.359 476.169C657.184 484.344 652.588 495.429 652.58 506.99V560.36H670.87V507C670.87 500.22 673.563 493.717 678.358 488.923C683.152 484.129 689.655 481.435 696.435 481.435C703.215 481.435 709.718 484.129 714.512 488.923C719.307 493.717 722 500.22 722 507V560.88H740.29V507C739.78 482.93 720.24 463.39 696.18 463.39ZM274.44 501C274.378 491.027 270.406 481.476 263.376 474.4C256.347 467.324 246.823 463.288 236.85 463.16H191.5V560.39H209.79V538.59H232.09L249.38 560.39H272.94L252.94 535.08C259.387 532.024 264.832 527.197 268.639 521.162C272.446 515.128 274.458 508.135 274.44 501ZM236.85 520.55H209.79V481.43H236.85C239.403 481.405 241.936 481.885 244.303 482.843C246.67 483.801 248.824 485.218 250.641 487.012C252.458 488.806 253.903 490.941 254.891 493.296C255.879 495.65 256.392 498.177 256.4 500.73C256.4 511.5 247.38 520.52 236.86 520.52L236.85 520.55ZM562.36 542.35H540.56C536.589 542.386 532.651 541.634 528.973 540.139C525.294 538.643 521.949 536.434 519.13 533.638C516.31 530.842 514.073 527.515 512.547 523.849C511.021 520.183 510.237 516.251 510.24 512.28V463.14H492V511.75C492.013 524.638 497.139 536.995 506.252 546.108C515.365 555.221 527.722 560.347 540.61 560.36H562.41L562.36 542.35ZM438.58 463.14C427.019 463.148 415.934 467.744 407.759 475.919C399.584 484.094 394.988 495.179 394.98 506.74V560.11H413.27V541.57H464.39V560.11H482.68V507C482.609 495.349 477.932 484.199 469.67 475.984C461.408 467.769 450.231 463.155 438.58 463.15V463.14ZM413 523.78V506.75C413 499.971 415.693 493.47 420.486 488.676C425.28 483.883 431.781 481.19 438.56 481.19C445.339 481.19 451.84 483.883 456.634 488.676C461.427 493.47 464.12 499.971 464.12 506.75V523.79L413 523.78ZM385.44 500.73C382.716 488.482 375.611 477.65 365.462 470.272C355.312 462.895 342.818 459.478 330.326 460.666C317.835 461.853 306.208 467.563 297.63 476.721C289.053 485.88 284.117 497.856 283.75 510.398C283.382 522.94 287.609 535.185 295.636 544.829C303.663 554.474 314.936 560.854 327.336 562.771C339.737 564.687 352.41 562.008 362.974 555.237C373.537 548.465 381.264 538.068 384.7 526H365.4C362.776 531.592 358.643 536.339 353.467 539.708C348.29 543.077 342.275 544.933 336.1 545.067C329.925 545.201 323.835 543.608 318.517 540.467C313.199 537.326 308.864 532.762 306 527.29L385.44 500.73ZM335.32 478.43C340.028 478.386 344.689 479.373 348.975 481.322C353.261 483.27 357.068 486.133 360.13 489.71L302 509.24C302.684 500.86 306.49 493.041 312.665 487.334C318.839 481.626 326.932 478.445 335.34 478.42L335.32 478.43Z" fill="white"/>
</g>
<defs>
<clipPath id="clip0_2_3300">
<rect width="1024" height="1024" fill="white"/>
</clipPath>
</defs>
</svg>
